<?xml version="1.0" encoding="UTF-8"?>
<map version="1.10" tiledversion="1.11.2" orientation="orthogonal" renderorder="right-down" width="30" height="17" tilewidth="32" tileheight="32" infinite="0" nextlayerid="15" nextobjectid="26">
 <tileset firstgid="1" name="FieldTileset " tilewidth="32" tileheight="32" tilecount="64" columns="8">
  <image source="FieldsTileset.png" width="256" height="256"/>
 </tileset>
 <tileset firstgid="65" source="../tilesets/Objects_Low.tsx"/>
 <tileset firstgid="199" source="../tilesets/Overlays.tsx"/>
 <tileset firstgid="213" source="../tilesets/Objects_High.tsx"/>
 <tileset firstgid="259" name="FlagAnim" tilewidth="32" tileheight="64" tilecount="6" columns="6">
  <image source="../tilesets/Animated Objects/1 Flag/1.png" width="192" height="64"/>
  <tile id="0">
   <animation>
    <frame tileid="0" duration="150"/>
    <frame tileid="1" duration="150"/>
    <frame tileid="2" duration="150"/>
    <frame tileid="3" duration="150"/>
    <frame tileid="4" duration="150"/>
    <frame tileid="5" duration="150"/>
   </animation>
  </tile>
 </tileset>
 <tileset firstgid="265" name="FlameAnim" tilewidth="32" tileheight="32" tilecount="6" columns="6">
  <image source="../tilesets/Animated Objects/2 Campfire/2.png" width="192" height="32"/>
  <tile id="0">
   <animation>
    <frame tileid="0" duration="150"/>
    <frame tileid="1" duration="150"/>
    <frame tileid="2" duration="150"/>
    <frame tileid="3" duration="150"/>
    <frame tileid="4" duration="150"/>
    <frame tileid="5" duration="150"/>
   </animation>
  </tile>
 </tileset>
 <tileset firstgid="271" name="FlameSmokeAnim" tilewidth="32" tileheight="64" tilecount="6" columns="6">
  <image source="../tilesets/Animated Objects/2 Campfire/1.png" width="192" height="64"/>
  <tile id="5">
   <animation>
    <frame tileid="0" duration="150"/>
    <frame tileid="1" duration="150"/>
    <frame tileid="2" duration="150"/>
    <frame tileid="3" duration="150"/>
    <frame tileid="4" duration="150"/>
    <frame tileid="5" duration="150"/>
   </animation>
  </tile>
 </tileset>
 <tileset firstgid="277" name="FlagAnim2" tilewidth="32" tileheight="64" tilecount="6" columns="6">
  <image source="../tilesets/Animated Objects/1 Flag/2.png" width="192" height="64"/>
  <tile id="0">
   <animation>
    <frame tileid="0" duration="150"/>
    <frame tileid="1" duration="150"/>
    <frame tileid="2" duration="150"/>
    <frame tileid="3" duration="150"/>
    <frame tileid="4" duration="150"/>
    <frame tileid="5" duration="150"/>
   </animation>
  </tile>
 </tileset>
 <tileset firstgid="283" name="Tower" tilewidth="70" tileheight="130" tilecount="6" columns="6">
  <image source="../tilesets/Towers/Idle/4.png" width="420" height="130"/>
  <tile id="0">
   <animation>
    <frame tileid="0" duration="150"/>
    <frame tileid="1" duration="150"/>
    <frame tileid="2" duration="150"/>
    <frame tileid="3" duration="150"/>
    <frame tileid="4" duration="150"/>
    <frame tileid="5" duration="150"/>
   </animation>
  </tile>
 </tileset>
 <tileset firstgid="289" name="Tower2" tilewidth="70" tileheight="130" tilecount="4" columns="4">
  <image source="../tilesets/Towers/Idle/3.png" width="280" height="130"/>
  <tile id="0">
   <animation>
    <frame tileid="0" duration="150"/>
    <frame tileid="1" duration="150"/>
    <frame tileid="2" duration="150"/>
    <frame tileid="3" duration="150"/>
   </animation>
  </tile>
 </tileset>
 <tileset firstgid="293" name="FieldTileset2" tilewidth="32" tileheight="32" tilecount="3" columns="0">
  <grid orientation="orthogonal" width="1" height="1"/>
  <tile id="0">
   <image source="../Grass/spr_grass_01.png" width="32" height="32"/>
  </tile>
  <tile id="1">
   <image source="../Grass/spr_grass_02.png" width="32" height="32"/>
  </tile>
  <tile id="2">
   <image source="../Grass/spr_grass_03.png" width="32" height="32"/>
  </tile>
 </tileset>
 <objectgroup id="4" name="Path" opacity="0">
  <object id="21" x="193.75" y="13">
   <polyline points="0,0 0,107 575.499,111 575.499,269 -81.7529,266 -83.7503,395 670.252,395 671.25,529"/>
  </object>
 </objectgroup>
 <objectgroup id="5" name="TowerSpots" visible="0" opacity="0">
  <object id="6" x="353" y="32" width="64" height="64"/>
  <object id="10" x="546" y="157" width="65" height="69"/>
  <object id="11" x="800" y="64" width="64" height="66"/>
  <object id="12" x="832" y="318" width="65" height="68"/>
  <object id="15" x="2" y="257" width="63" height="63"/>
  <object id="16" x="384" y="320" width="66" height="65"/>
  <object id="19" x="192" y="448" width="65" height="64"/>
  <object id="20" x="512" y="448" width="64" height="63"/>
  <object id="8" x="95" y="97" width="66" height="62"/>
 </objectgroup>
 <layer id="1" name="Ground" width="30" height="17">
  <data encoding="csv">
38,38,38,38,38,13,17,38,38,38,38,38,38,38,38,38,38,38,38,38,38,38,38,38,38,38,38,38,38,38,
38,38,38,38,38,13,9,38,38,38,38,10,12,38,38,38,38,38,38,38,38,38,38,38,38,38,38,38,38,38,
38,38,38,38,38,21,17,38,38,38,38,26,28,38,38,38,38,38,38,38,38,38,38,38,38,10,12,38,38,38,
38,38,38,10,12,21,1,36,34,34,35,36,35,34,36,36,36,35,34,34,36,36,34,36,12,26,28,38,38,38,
38,38,38,26,28,26,3,3,3,3,3,4,3,3,3,4,3,3,3,4,4,4,3,1,25,38,38,38,38,38,
38,38,38,38,38,38,38,38,38,38,38,38,38,38,38,38,38,10,12,38,38,38,38,13,9,38,38,38,38,38,
38,38,38,38,38,38,38,38,38,38,38,38,38,38,38,38,38,26,28,38,38,38,38,21,9,38,38,38,38,38,
38,38,38,38,38,38,38,38,38,38,38,38,38,38,38,38,38,38,38,38,38,38,38,29,25,38,38,38,38,38,
10,12,10,35,34,35,34,35,34,35,34,34,34,34,35,35,34,34,34,35,35,34,34,1,25,38,38,38,38,38,
26,28,21,1,1,4,2,4,2,2,4,4,2,3,3,2,3,2,3,2,3,2,2,2,28,38,38,38,38,38,
38,38,21,1,17,38,38,38,38,38,38,38,10,12,38,38,38,38,38,38,38,38,38,38,38,38,10,12,38,38,
38,38,21,1,9,38,38,38,38,38,38,38,26,28,38,38,38,38,38,38,38,38,38,38,38,38,26,28,38,38,
38,38,21,1,1,35,34,35,35,35,35,34,35,35,34,34,35,34,34,34,35,34,35,34,35,34,34,12,38,38,
38,38,26,3,3,3,3,3,3,3,3,3,3,3,3,3,3,3,3,3,3,3,3,3,3,3,1,17,38,38,
38,38,38,38,38,38,10,17,38,38,38,38,38,38,38,38,10,12,38,38,38,38,38,38,38,38,29,25,38,38,
38,38,38,38,38,38,26,28,38,38,38,38,38,38,38,38,26,28,38,38,38,38,38,38,38,38,13,25,38,38,
38,38,38,38,38,38,38,38,38,38,38,38,38,38,38,38,38,38,38,38,38,38,38,38,38,38,13,17,38,38
</data>
 </layer>
 <layer id="11" name="Overlays" width="30" height="17">
  <data encoding="csv">
0,0,0,0,0,0,0,0,0,0,0,0,0,0,202,0,0,0,0,0,0,0,0,0,202,0,0,0,0,0,
202,0,0,0,0,0,0,0,200,0,202,0,0,0,0,0,0,0,0,203,0,0,0,200,0,0,0,0,0,0,
0,0,0,202,209,0,0,0,0,0,0,0,0,0,210,0,0,0,0,0,0,0,200,0,0,0,0,0,0,0,
0,200,0,0,0,0,0,0,0,0,0,0,0,0,0,0,0,0,0,0,0,0,0,0,0,0,0,1610612940,0,0,
0,0,0,0,0,0,0,0,0,0,0,0,0,0,0,0,0,0,0,0,0,0,0,0,0,0,0,201,0,0,
0,0,0,0,0,0,0,200,0,0,0,0,0,0,0,0,0,0,0,0,0,0,0,0,0,0,0,0,0,0,
0,202,0,0,202,0,0,0,0,0,0,0,0,0,0,0,0,0,0,0,0,0,0,0,0,0,0,0,0,202,
0,0,0,0,0,0,208,0,0,3221225676,0,203,0,203,203,201,0,0,0,0,0,0,0,0,0,0,0,200,211,0,
0,0,0,0,0,0,0,0,0,0,0,0,0,0,0,0,0,0,0,0,0,0,0,0,0,0,212,0,0,0,
0,0,0,0,0,0,0,0,0,0,0,0,0,0,0,0,0,0,0,0,0,0,0,0,0,0,0,0,0,0,
0,0,0,0,0,200,202,0,0,0,200,0,0,0,0,0,0,202,0,0,0,202,0,0,0,0,0,0,0,0,
0,0,0,0,0,209,0,0,202,0,0,0,0,0,0,0,0,0,0,0,0,0,0,0,0,0,0,0,0,0,
0,0,0,0,0,0,0,0,0,0,0,0,0,0,0,0,0,0,0,0,0,0,0,0,0,0,0,0,0,0,
0,0,0,0,0,0,0,0,0,0,0,0,0,0,0,0,0,0,0,0,0,0,0,0,0,0,0,0,0,201,
1610612940,203,0,0,0,0,0,0,212,0,0,0,0,0,0,0,0,0,212,0,0,0,202,0,0,0,0,0,0,0,
202,203,202,0,0,0,0,0,209,0,0,0,0,0,0,0,0,0,0,0,0,0,0,0,0,0,0,0,0,0,
0,0,0,0,0,0,0,0,0,0,0,3221225676,0,0,0,200,0,0,0,1610612940,0,0,0,0,0,0,0,0,0,0
</data>
 </layer>
 <layer id="6" name="GroundVar" width="30" height="17">
  <data encoding="csv">
0,0,0,0,0,0,0,0,0,0,0,0,0,0,0,0,0,0,0,0,0,0,0,0,0,0,0,0,0,0,
0,0,0,0,0,0,0,0,0,0,0,0,0,0,0,0,0,0,0,0,0,0,0,0,0,0,0,0,0,0,
0,0,0,0,0,0,0,0,0,0,0,0,0,0,0,0,0,0,0,0,0,0,0,0,0,0,0,0,0,0,
0,0,0,0,0,0,0,0,0,0,0,0,0,0,0,0,0,0,0,0,0,0,0,0,0,0,0,0,0,0,
0,0,0,0,0,0,0,0,0,0,0,0,0,0,0,0,0,0,0,0,0,0,0,0,0,0,0,0,0,0,
0,0,0,0,0,0,0,0,0,0,0,0,0,0,0,0,0,0,0,0,0,0,0,0,0,0,0,0,0,0,
0,0,0,0,0,0,0,0,0,0,0,0,0,0,0,0,0,0,0,0,0,0,0,0,0,0,0,0,0,0,
0,0,0,0,0,0,0,0,0,0,0,0,0,0,0,0,0,0,0,0,0,0,0,0,0,0,0,0,0,0,
0,0,0,0,0,0,0,0,0,0,0,0,0,0,0,0,0,0,0,0,0,0,0,0,0,0,0,0,0,0,
0,0,0,0,0,0,0,0,0,0,0,0,0,0,0,0,0,0,0,0,0,0,0,0,0,0,0,0,0,0,
0,0,0,0,0,0,0,0,0,0,0,0,0,0,0,0,0,0,0,0,0,0,0,0,0,0,0,0,0,0,
0,0,0,0,0,0,0,0,0,0,0,0,0,0,0,0,0,0,0,0,0,0,0,0,0,0,0,0,0,0,
0,0,0,0,0,0,0,0,0,0,0,0,0,0,0,0,0,0,0,0,0,0,0,0,0,0,0,0,0,0,
0,0,0,0,0,0,0,0,0,0,0,0,0,0,0,0,0,0,0,0,0,0,0,0,0,0,0,0,0,0,
0,0,0,0,0,0,0,0,0,0,0,0,0,0,0,0,0,0,0,0,0,0,0,0,0,0,0,0,0,0,
0,0,0,0,0,0,0,0,0,0,0,0,0,0,0,0,0,0,0,0,0,0,0,0,0,0,0,0,0,0,
0,0,0,0,0,0,0,0,0,0,0,0,0,0,0,0,0,0,0,0,0,0,0,0,0,0,0,0,0,0
</data>
 </layer>
 <layer id="8" name="TowerSpotsVis" width="30" height="17">
  <data encoding="csv">
0,0,0,0,0,0,0,0,0,0,0,0,0,0,0,0,0,0,0,0,0,0,0,0,0,0,0,0,0,0,
0,0,0,0,0,0,0,0,0,0,0,0,0,0,0,0,0,0,0,0,0,0,0,0,0,0,0,0,0,0,
0,0,0,0,0,0,0,0,0,0,0,205,0,0,0,0,0,0,0,0,0,0,0,0,0,0,0,0,0,0,
0,0,0,0,0,0,0,0,0,0,0,0,0,0,0,0,0,0,0,0,0,0,0,0,0,205,0,0,0,0,
0,0,0,205,0,0,0,0,0,0,0,0,0,0,0,0,0,0,0,0,0,0,0,0,0,0,0,0,0,0,
0,0,0,0,0,0,0,0,0,0,0,0,0,0,0,0,0,0,0,0,0,0,0,0,0,0,0,0,0,0,
0,0,0,0,0,0,0,0,0,0,0,0,0,0,0,0,0,205,0,0,0,0,0,0,0,0,0,0,0,0,
0,0,0,0,0,0,0,0,0,0,0,0,0,0,0,0,0,0,0,0,0,0,0,0,0,0,0,0,0,0,
0,0,0,0,0,0,0,0,0,0,0,0,0,0,0,0,0,0,0,0,0,0,0,0,0,0,0,0,0,0,
205,0,0,0,0,0,0,0,0,0,0,0,0,0,0,0,0,0,0,0,0,0,0,0,0,0,0,0,0,0,
0,0,0,0,0,0,0,0,0,0,0,0,0,0,0,0,0,0,0,0,0,0,0,0,0,0,0,0,0,0,
0,0,0,0,0,0,0,0,0,0,0,0,205,0,0,0,0,0,0,0,0,0,0,0,0,0,205,0,0,0,
0,0,0,0,0,0,0,0,0,0,0,0,0,0,0,0,0,0,0,0,0,0,0,0,0,0,0,0,0,0,
0,0,0,0,0,0,0,0,0,0,0,0,0,0,0,0,0,0,0,0,0,0,0,0,0,0,0,0,0,0,
0,0,0,0,0,0,0,0,0,0,0,0,0,0,0,0,0,0,0,0,0,0,0,0,0,0,0,0,0,0,
0,0,0,0,0,0,205,0,0,0,0,0,0,0,0,0,205,0,0,0,0,0,0,0,0,0,0,0,0,0,
0,0,0,0,0,0,0,0,0,0,0,0,0,0,0,0,0,0,0,0,0,0,0,0,0,0,0,0,0,0
</data>
 </layer>
 <layer id="7" name="PropsBelow" width="30" height="17">
  <data encoding="csv">
172,175,177,180,0,0,0,0,178,0,0,1610612900,0,178,0,173,167,178,174,0,179,175,174,179,0,0,176,187,179,0,
175,178,188,193,172,0,0,0,157,178,0,0,0,0,180,0,173,164,179,176,195,180,175,178,177,180,0,177,178,0,
0,167,173,160,195,0,0,0,0,0,0,186,188,0,0,0,0,175,0,180,0,179,176,0,0,179,176,178,174,180,
0,192,157,180,177,0,0,0,0,0,0,0,0,0,0,0,0,0,0,0,0,0,0,0,0,186,177,0,0,179,
167,0,0,186,182,177,0,0,0,0,0,0,0,0,0,0,0,0,181,0,0,0,0,0,0,175,0,174,0,0,
179,175,0,167,172,0,173,0,173,0,0,0,173,164,0,0,173,0,0,164,173,0,173,0,0,174,167,0,164,179,
175,176,167,179,0,176,0,173,167,178,179,158,179,173,0,173,0,186,195,179,0,173,0,0,0,0,179,173,0,178,
0,179,176,0,180,0,179,0,0,0,178,0,0,0,173,0,0,0,0,178,0,179,0,0,0,0,178,0,0,173,
0,0,0,0,0,0,0,0,0,0,0,0,0,0,0,0,0,0,0,0,0,0,0,0,0,0,173,0,0,0,
186,194,0,0,0,0,0,0,0,0,0,0,0,0,0,0,0,0,0,0,0,0,0,0,0,180,0,178,174,167,
173,0,0,0,0,193,178,176,167,178,0,173,0,0,0,175,173,173,175,173,0,0,178,0,164,180,0,0,0,178,
188,179,0,0,0,0,0,173,0,0,173,0,182,0,173,167,0,175,173,0,0,0,0,0,0,0,183,0,178,0,
173,178,0,0,0,0,0,0,0,0,0,0,0,0,0,0,0,0,0,0,0,0,0,0,0,0,0,0,0,173,
0,179,175,0,0,0,0,0,0,0,0,0,0,0,0,0,0,0,0,0,0,0,0,0,0,0,0,0,173,0,
178,0,189,164,173,178,176,179,177,173,176,178,173,0,167,0,0,0,0,173,0,173,0,173,0,0,0,0,0,177,
0,164,175,167,178,0,184,187,177,176,0,179,0,0,178,179,184,192,176,0,0,0,0,172,176,0,0,0,176,173,
173,164,173,178,0,0,180,0,178,0,173,0,179,0,172,0,178,176,0,178,0,0,172,0,0,178,0,0,0,0
</data>
 </layer>
 <layer id="10" name="PropsAbove" width="30" height="17">
  <data encoding="csv">
0,0,0,0,0,219,0,219,0,0,0,0,0,0,161,0,0,0,0,0,256,0,0,0,157,0,0,0,0,0,
161,0,0,0,0,219,0,219,0,0,256,0,0,0,0,0,0,0,0,160,0,0,0,236,0,0,0,0,0,0,
0,0,0,0,0,219,0,247,213,215,213,0,0,213,213,213,213,222,215,213,215,213,219,215,213,0,0,255,0,0,
0,0,0,0,0,0,0,0,0,0,0,0,0,0,0,0,0,0,0,0,0,0,0,0,0,0,0,0,0,0,
0,0,238,0,0,0,213,213,213,213,0,213,213,213,213,213,213,218,0,213,213,213,213,245,0,219,0,157,0,0,
0,0,0,0,0,0,0,237,0,0,0,0,0,0,253,0,0,0,0,0,0,0,0,219,0,219,0,0,0,0,
0,158,0,0,256,0,0,0,0,255,0,0,0,236,0,252,0,0,0,0,0,0,0,219,0,219,217,224,238,160,
0,0,213,213,213,215,221,213,213,215,213,213,213,161,160,157,213,215,215,213,213,213,213,219,0,219,254,0,223,0,
0,0,230,0,0,0,0,0,0,0,0,0,0,0,0,0,0,0,0,0,0,0,0,0,0,216,0,252,253,0,
0,0,246,0,0,213,213,213,213,222,213,213,220,0,213,213,213,213,213,213,213,215,218,213,229,219,0,0,0,0,
0,215,0,0,0,0,158,0,0,0,236,0,0,0,0,0,0,256,0,0,0,157,0,0,0,0,0,0,0,0,
0,0,219,0,0,219,213,215,161,213,213,213,0,0,213,213,213,218,213,215,213,213,215,222,213,213,0,0,247,0,
0,0,219,0,0,0,0,0,0,0,0,0,0,0,0,0,0,0,0,0,0,0,0,0,0,0,0,0,219,0,
255,0,232,213,213,213,0,246,213,213,213,213,0,213,213,213,253,0,213,213,213,213,0,213,213,213,0,0,219,157,
0,158,0,0,0,0,0,0,0,0,0,0,0,0,0,0,0,0,0,0,0,0,256,0,0,0,219,0,248,0,
161,0,256,0,0,0,0,0,0,0,0,255,0,0,0,0,0,0,0,255,0,0,0,0,0,0,219,0,219,0,
0,0,0,0,0,0,0,0,0,0,0,0,0,0,0,237,0,0,0,0,0,0,0,0,0,0,219,0,219,0
</data>
 </layer>
 <layer id="12" name="Animations" width="30" height="17">
  <data encoding="csv">
0,0,0,0,0,0,0,0,0,0,0,0,0,0,0,0,0,0,0,0,0,0,0,0,0,0,0,0,0,0,
0,0,0,0,0,0,0,0,0,0,0,0,0,0,0,0,0,0,0,0,0,0,0,0,0,0,0,0,0,0,
0,0,0,0,0,0,0,0,0,0,0,0,0,0,0,0,0,0,0,0,0,0,0,0,0,0,0,0,0,0,
0,0,0,0,0,0,0,0,0,0,0,0,0,0,0,0,0,0,0,0,0,0,0,0,0,0,0,0,0,0,
0,0,0,0,0,0,0,0,0,0,0,0,0,0,0,0,0,0,0,0,0,0,0,0,0,0,0,0,0,0,
0,0,0,0,0,259,0,0,0,0,0,0,0,0,0,0,0,0,0,0,0,0,0,0,0,0,0,0,0,0,
0,0,0,0,0,0,0,0,0,0,0,0,0,0,276,0,0,0,0,0,0,0,0,0,0,0,0,0,0,0,
0,0,0,0,0,0,0,0,0,0,0,0,0,0,0,0,0,0,0,0,0,0,0,0,0,0,0,265,0,0,
0,0,0,0,0,0,0,0,0,0,0,0,0,0,0,0,0,0,0,0,0,0,0,0,0,0,0,0,0,0,
0,0,0,0,0,0,0,0,0,0,0,0,0,0,0,0,0,0,0,0,0,0,0,0,0,0,0,0,0,0,
0,0,0,0,0,0,0,0,0,0,0,0,0,0,0,0,0,0,0,0,0,0,0,0,0,0,0,0,0,0,
0,0,0,0,0,0,0,0,0,0,0,0,0,0,0,0,0,0,0,0,0,0,0,0,0,0,0,0,0,0,
0,0,0,0,0,0,0,0,0,0,0,0,0,0,0,0,0,0,0,0,0,0,0,0,0,0,0,0,0,0,
0,0,0,0,0,0,0,0,0,0,0,0,0,0,0,0,0,0,0,0,0,0,0,0,0,0,0,0,0,0,
0,0,0,0,0,0,0,0,0,0,0,0,0,0,0,0,0,0,0,0,0,0,0,0,0,0,0,0,0,0,
0,0,0,0,0,0,0,0,0,0,0,0,0,0,0,0,0,0,0,0,0,0,0,0,0,277,0,0,0,0,
0,0,0,0,0,0,0,0,0,0,0,0,0,0,0,0,0,0,0,0,0,0,0,0,0,0,0,0,0,0
</data>
 </layer>
</map>
