<?xml version="1.0" encoding="UTF-8"?>
<map version="1.10" tiledversion="1.11.2" orientation="orthogonal" renderorder="right-down" width="30" height="17" tilewidth="32" tileheight="32" infinite="0" nextlayerid="10" nextobjectid="9">
 <tileset firstgid="1" name="FieldTileset2" tilewidth="32" tileheight="32" tilecount="3" columns="0">
  <grid orientation="orthogonal" width="1" height="1"/>
  <tile id="0">
   <image source="../Grass/spr_grass_01.png" width="32" height="32"/>
  </tile>
  <tile id="1">
   <image source="../Grass/spr_grass_02.png" width="32" height="32"/>
  </tile>
  <tile id="2">
   <image source="../Grass/spr_grass_03.png" width="32" height="32"/>
  </tile>
 </tileset>
 <tileset firstgid="4" name="TileSet" tilewidth="32" tileheight="32" tilecount="64" columns="8">
  <image source="../tilesets/Tiles2/Tileset2.png" width="256" height="256"/>
 </tileset>
 <tileset firstgid="68" source="../tilesets/Overlays.tsx"/>
 <tileset firstgid="82" name="Citizen_old_man" tilewidth="48" tileheight="48" tilecount="4" columns="4">
  <image source="../tilesets/Animated Objects/Citizens/D_Idle.png" width="192" height="48"/>
  <tile id="0">
   <animation>
    <frame tileid="0" duration="160"/>
    <frame tileid="1" duration="160"/>
    <frame tileid="2" duration="160"/>
    <frame tileid="3" duration="160"/>
   </animation>
  </tile>
 </tileset>
 <tileset firstgid="86" source="../tilesets/Objects_Low.tsx"/>
 <tileset firstgid="220" name="FlameAnim" tilewidth="32" tileheight="32" tilecount="6" columns="6">
  <image source="../tilesets/Animated Objects/2 Campfire/2.png" width="192" height="32"/>
  <tile id="0">
   <animation>
    <frame tileid="0" duration="150"/>
    <frame tileid="1" duration="150"/>
    <frame tileid="2" duration="150"/>
    <frame tileid="3" duration="150"/>
    <frame tileid="4" duration="150"/>
    <frame tileid="5" duration="150"/>
   </animation>
  </tile>
 </tileset>
 <tileset firstgid="226" source="../tilesets/Objects_High.tsx"/>
 <tileset firstgid="299" name="FlameSmokeAnim" tilewidth="32" tileheight="64" tilecount="6" columns="6">
  <image source="../tilesets/Animated Objects/2 Campfire/1.png" width="192" height="64"/>
  <tile id="5">
   <animation>
    <frame tileid="0" duration="150"/>
    <frame tileid="1" duration="150"/>
    <frame tileid="2" duration="150"/>
    <frame tileid="3" duration="150"/>
    <frame tileid="4" duration="150"/>
    <frame tileid="5" duration="150"/>
   </animation>
  </tile>
 </tileset>
 <tileset firstgid="305" name="FlagAnim" tilewidth="32" tileheight="64" tilecount="6" columns="6">
  <image source="../tilesets/Animated Objects/1 Flag/1.png" width="192" height="64"/>
  <tile id="0">
   <animation>
    <frame tileid="0" duration="150"/>
    <frame tileid="1" duration="150"/>
    <frame tileid="2" duration="150"/>
    <frame tileid="3" duration="150"/>
    <frame tileid="4" duration="150"/>
    <frame tileid="5" duration="150"/>
   </animation>
  </tile>
 </tileset>
 <tileset firstgid="311" name="Citizen" tilewidth="48" tileheight="48" tilecount="6" columns="6">
  <image source="../tilesets/Animated Objects/Citizens/D_Special.png" width="288" height="48"/>
  <tile id="0">
   <animation>
    <frame tileid="0" duration="170"/>
    <frame tileid="1" duration="170"/>
    <frame tileid="2" duration="170"/>
    <frame tileid="3" duration="170"/>
    <frame tileid="4" duration="170"/>
    <frame tileid="5" duration="170"/>
   </animation>
  </tile>
 </tileset>
 <tileset firstgid="317" name="Citizen2" tilewidth="48" tileheight="48" tilecount="6" columns="6">
  <image source="../tilesets/Animated Objects/Citizens/S_Special.png" width="288" height="48"/>
  <tile id="0">
   <animation>
    <frame tileid="0" duration="170"/>
    <frame tileid="1" duration="170"/>
    <frame tileid="2" duration="170"/>
    <frame tileid="3" duration="170"/>
    <frame tileid="4" duration="170"/>
    <frame tileid="5" duration="170"/>
   </animation>
  </tile>
 </tileset>
 <tileset firstgid="323" name="U_Idle" tilewidth="48" tileheight="48" tilecount="4" columns="4">
  <image source="../tilesets/Animated Objects/Citizens/U_Idle.png" width="192" height="48"/>
  <tile id="0">
   <animation>
    <frame tileid="0" duration="150"/>
    <frame tileid="1" duration="150"/>
    <frame tileid="2" duration="150"/>
    <frame tileid="3" duration="150"/>
   </animation>
  </tile>
 </tileset>
 <tileset firstgid="327" name="Tent" tilewidth="73" tileheight="71" tilecount="4" columns="0">
  <grid orientation="orthogonal" width="1" height="1"/>
  <tile id="0">
   <image source="../tilesets/Objects/Tent/1.png" width="73" height="65"/>
  </tile>
  <tile id="1">
   <image source="../tilesets/Objects/Tent/2.png" width="64" height="61"/>
  </tile>
  <tile id="2">
   <image source="../tilesets/Objects/Tent/3.png" width="65" height="62"/>
  </tile>
  <tile id="3">
   <image source="../tilesets/Objects/Tent/4.png" width="64" height="71"/>
  </tile>
 </tileset>
 <objectgroup id="3" name="Path">
  <object id="1" x="1" y="422">
   <polyline points="0,-11 290,-13 288,-170 192,-169 192,-330 480,-331 481,21 673,22 673,-208 672,-231 800,-232 800,-108 957,-109"/>
  </object>
 </objectgroup>
 <objectgroup id="5" name="TowerSpots">
  <object id="3" x="354" y="225" width="62" height="62"/>
  <object id="4" x="130" y="449" width="62" height="61"/>
  <object id="5" x="545" y="322" width="63" height="62"/>
  <object id="6" x="705" y="98" width="64" height="62"/>
  <object id="7" x="865" y="354" width="63" height="61"/>
  <object id="8" x="65" y="127" width="64" height="67"/>
 </objectgroup>
 <layer id="1" name="Ground" width="30" height="17">
  <data encoding="csv">
3,3,3,3,3,3,3,3,3,3,3,3,3,3,3,3,3,3,3,3,3,3,3,3,3,3,3,3,3,3,
3,3,3,3,3,3,3,3,3,3,3,3,3,3,3,3,3,3,3,3,3,3,3,3,3,3,3,3,3,3,
3,3,3,3,3,2,2,2,2,2,2,2,2,2,2,2,3,3,3,3,3,3,3,3,3,3,3,3,3,3,
3,3,3,3,3,2,2,2,2,2,2,2,2,2,2,2,3,3,3,3,3,3,3,3,3,3,3,3,3,3,
3,3,3,3,3,2,2,3,3,3,3,3,3,3,2,2,3,3,3,3,3,3,3,3,3,3,3,3,3,3,
3,3,3,3,3,2,2,3,3,3,3,3,3,3,2,2,3,3,3,3,2,2,2,2,2,2,3,3,3,3,
3,3,3,3,3,2,2,3,3,3,3,3,3,3,2,2,3,3,3,3,2,2,2,2,2,2,3,3,3,3,
3,3,3,3,3,2,2,2,2,2,3,3,3,3,2,2,3,3,3,3,2,2,3,3,2,2,3,3,3,3,
3,3,3,3,3,2,2,2,2,2,3,3,3,3,2,2,3,3,3,3,2,2,3,3,2,2,3,3,3,3,
3,3,3,3,3,3,3,3,2,2,3,3,3,3,2,2,3,3,3,3,2,2,3,3,2,2,2,2,2,2,
3,3,3,3,3,3,3,3,2,2,3,3,3,3,2,2,3,3,3,3,2,2,3,3,2,2,2,2,2,2,
3,3,3,3,3,3,3,3,2,2,3,3,3,3,2,2,3,3,3,3,2,2,3,3,3,3,3,3,3,3,
2,2,2,2,2,2,2,2,2,2,3,3,3,3,2,2,3,3,3,3,2,2,3,3,3,3,3,3,3,3,
2,2,2,2,2,2,2,2,2,2,3,3,3,3,2,2,2,2,2,2,2,2,3,3,3,3,3,3,3,3,
3,3,3,3,3,3,3,3,3,3,3,3,3,3,2,2,2,2,2,2,2,2,3,3,3,3,3,3,3,3,
3,3,3,3,3,3,3,3,3,3,3,3,3,3,3,3,3,3,3,3,3,3,3,3,3,3,3,3,3,3,
3,3,3,3,3,3,3,3,3,3,3,3,3,3,3,3,3,3,3,3,3,3,3,3,3,3,3,3,3,3
</data>
 </layer>
 <layer id="6" name="TowerSpotsVis" width="30" height="17">
  <data encoding="csv">
0,0,0,0,0,0,0,0,0,0,0,0,0,0,0,0,0,0,0,0,0,0,0,0,0,0,0,0,0,0,
0,0,0,0,0,0,0,0,0,0,0,0,0,0,0,0,0,0,0,0,0,0,0,0,0,0,0,0,0,0,
0,0,0,0,0,0,0,0,0,0,0,0,0,0,0,0,0,0,0,0,0,0,0,0,0,0,0,0,0,0,
0,10,5,31,11,0,0,0,0,0,0,0,0,0,0,0,0,0,0,0,0,0,0,0,0,0,0,0,0,0,
0,18,0,0,67,0,0,0,0,0,0,0,0,0,0,0,0,0,0,0,0,0,74,0,0,0,0,0,0,0,
0,18,74,0,0,0,0,0,0,0,0,0,0,0,0,0,0,0,0,0,0,0,0,0,0,0,0,0,0,0,
0,26,6,7,0,0,0,0,0,0,0,0,0,0,0,0,0,0,0,0,0,0,0,0,0,0,0,0,0,0,
0,0,0,0,0,0,0,0,0,0,0,0,0,0,0,0,0,0,0,0,0,0,0,0,0,0,0,0,0,0,
0,0,0,0,0,0,0,0,0,0,0,74,0,0,0,0,0,0,0,0,0,0,0,0,0,0,0,0,0,0,
0,0,0,0,0,0,0,0,0,0,0,0,0,0,0,0,0,0,0,0,0,0,0,0,0,0,0,0,0,0,
0,0,0,0,0,0,0,0,0,0,0,0,0,0,0,0,0,0,0,0,0,0,0,0,0,0,0,0,0,0,
0,0,0,0,0,0,0,0,0,0,0,0,0,0,0,0,0,74,0,0,0,0,0,0,0,0,0,0,0,0,
0,0,0,0,0,0,0,0,0,0,0,0,0,0,0,0,0,0,0,0,0,0,0,0,0,0,0,74,0,0,
0,0,0,0,0,0,0,0,0,0,0,0,0,0,0,0,0,0,0,0,0,0,0,0,0,0,0,0,0,0,
0,0,0,0,0,0,0,0,0,0,0,0,0,0,0,0,0,0,0,0,0,0,0,0,0,0,0,0,0,0,
0,0,0,0,74,0,0,0,0,0,0,0,0,0,0,0,0,0,0,0,0,0,0,0,0,0,0,0,0,0,
0,0,0,0,0,0,0,0,0,0,0,0,0,0,0,0,0,0,0,0,0,0,0,0,0,0,0,0,0,0
</data>
 </layer>
 <layer id="8" name="Overlay" width="30" height="17">
  <data encoding="csv">
0,0,0,0,0,0,0,0,0,0,0,0,0,0,0,0,0,0,188,0,0,0,0,0,0,0,0,0,0,0,
0,0,0,0,0,0,0,0,0,0,0,0,0,0,0,0,188,0,2684354745,0,0,0,0,0,0,0,0,0,0,0,
0,0,0,0,0,0,0,0,0,195,0,0,190,0,0,0,0,0,0,0,69,0,0,0,0,0,0,0,0,0,
0,0,0,0,0,195,0,0,0,0,2684354745,0,0,0,0,192,0,196,73,0,0,0,0,0,0,0,0,0,71,0,
0,0,0,0,0,0,0,0,0,0,69,0,0,0,0,0,198,188,0,197,70,0,0,0,0,70,195,0,0,0,
0,0,0,0,0,0,0,0,0,0,0,77,0,0,195,0,0,196,195,0,0,0,0,0,0,0,0,78,0,0,
0,0,0,0,0,0,195,0,0,0,0,0,0,0,0,0,71,73,0,0,195,0,0,0,0,0,69,0,0,0,
0,0,0,79,0,195,0,0,0,0,0,0,0,0,0,190,0,72,0,0,0,0,0,0,0,0,0,0,0,0,
0,72,0,70,0,0,0,195,0,0,0,0,0,0,0,0,0,0,0,0,0,0,78,0,0,0,0,0,0,0,
0,0,68,70,0,0,0,0,0,0,0,0,0,0,0,0,0,0,0,0,0,195,0,78,0,0,0,0,195,0,
0,0,2684354745,79,70,0,79,0,0,0,0,79,0,190,0,0,0,0,0,0,0,0,0,0,0,195,0,0,0,0,
68,0,0,2684354745,0,0,0,69,0,0,0,0,0,79,79,190,0,0,0,0,0,0,0,0,0,0,0,0,0,0,
0,0,0,0,0,0,0,0,0,0,0,0,79,0,0,0,0,0,0,0,0,0,0,0,0,69,0,0,0,0,
0,0,0,0,0,0,0,0,0,0,0,0,0,77,0,0,195,0,0,0,0,0,0,0,0,0,0,0,0,0,
0,80,0,69,0,0,0,0,80,0,0,0,0,0,195,0,0,0,0,0,0,0,0,78,77,0,0,0,0,0,
80,0,0,70,0,0,0,0,71,0,80,0,0,0,68,0,0,0,0,0,0,0,0,0,72,0,0,0,0,0,
0,0,0,0,0,0,0,80,0,0,0,73,0,0,0,68,0,0,0,0,0,0,0,0,0,0,0,0,0,0
</data>
 </layer>
 <layer id="7" name="PropsBellow" width="30" height="17">
  <data encoding="csv">
0,0,0,0,0,0,0,0,0,0,0,0,0,0,0,0,0,0,0,0,0,0,0,0,0,0,0,0,0,0,
0,0,0,0,0,0,0,0,0,0,0,0,0,0,0,0,0,0,0,0,0,0,0,0,0,0,0,0,0,0,
0,0,0,0,0,0,0,0,0,0,0,0,0,0,0,0,0,0,0,0,0,10,5,6,11,0,0,0,0,0,
0,0,0,0,0,0,0,0,0,0,0,0,0,0,0,0,0,0,0,0,0,18,0,0,19,0,0,0,269,0,
0,0,0,0,0,0,0,0,0,0,0,0,0,0,0,0,0,0,0,0,0,34,0,0,27,0,0,0,0,0,
0,0,0,0,0,0,0,4,0,0,0,0,0,0,0,0,0,0,0,0,0,0,0,0,0,0,0,0,0,0,
0,0,0,0,0,0,0,0,0,0,0,4,5,11,0,0,0,0,0,0,0,0,0,0,0,0,0,0,0,0,
0,0,0,0,0,0,0,0,0,0,0,0,0,19,0,0,0,269,0,0,0,0,0,0,0,0,42,43,0,0,
0,0,0,0,0,0,0,0,0,0,232,0,0,31,0,0,0,0,0,0,0,0,0,0,0,0,50,51,31,0,
0,0,269,0,0,0,0,0,0,0,0,5,7,27,0,0,10,5,7,11,0,0,0,0,0,0,0,0,0,0,
0,0,0,0,0,0,0,0,0,0,232,0,0,0,0,0,18,0,0,19,0,0,0,0,0,0,0,0,0,0,
0,0,0,0,0,0,0,0,0,0,0,0,0,0,0,0,31,0,0,17,0,0,0,0,0,0,66,0,0,0,
0,0,0,0,0,0,0,0,0,0,232,264,220,0,0,0,0,0,0,0,0,0,2147483691,2147483690,0,0,31,0,0,0,
0,0,0,0,0,0,0,0,0,0,0,265,0,0,0,0,0,0,0,0,0,0,2147483699,2147483698,0,0,36,5,6,34,
0,0,0,0,0,0,11,0,0,0,0,0,0,0,0,0,0,0,0,0,0,0,0,0,0,0,44,13,14,41,
0,0,0,0,0,0,20,0,0,0,0,0,0,0,0,0,0,0,0,0,0,0,0,0,0,0,0,0,0,0,
0,0,0,26,6,31,27,0,0,0,0,0,0,0,0,0,0,0,0,0,0,0,0,0,0,0,0,0,0,0
</data>
 </layer>
 <layer id="2" name="PropsAbove" width="30" height="17">
  <data encoding="csv">
0,0,0,0,0,0,0,0,0,0,0,0,0,0,0,0,0,0,0,0,0,0,0,0,0,0,0,0,0,0,
0,0,0,0,0,245,227,233,228,263,228,228,226,228,226,228,0,0,0,0,0,0,0,0,0,0,0,0,0,0,
0,0,0,0,0,232,0,0,0,0,0,0,0,0,0,0,232,0,328,250,297,0,0,0,0,0,0,0,0,0,
0,0,0,0,0,232,0,0,0,0,0,0,0,53,0,0,243,0,0,0,0,0,0,0,0,0,0,0,0,0,
0,0,0,0,0,0,0,31,284,0,298,272,0,61,0,0,232,0,0,0,228,0,0,0,0,227,329,298,0,0,
0,0,0,0,4,0,0,4,5,6,9,0,0,0,232,0,232,268,0,261,232,0,0,0,0,0,283,0,0,0,
0,0,0,0,12,0,0,12,13,14,17,0,0,0,0,0,182,183,0,63,232,0,228,229,0,0,263,304,239,2147483693,
0,269,0,0,20,0,0,0,0,0,217,0,0,0,232,0,232,0,0,57,0,0,232,0,233,0,0,0,209,22,
268,0,0,277,28,282,42,43,0,0,63,205,0,0,232,0,232,0,0,65,0,0,232,0,232,0,0,0,0,30,
0,2147483710,0,250,36,5,50,51,232,0,2147483704,0,0,0,232,0,232,0,0,0,232,0,275,0,232,0,0,0,0,38,
0,57,0,0,297,0,0,0,232,0,63,0,0,0,232,0,0,0,0,0,232,0,232,0,228,228,228,228,228,38,
205,65,228,228,228,228,228,0,0,0,2147483668,0,0,0,231,0,0,205,0,0,232,0,232,0,0,0,0,0,0,53,
0,0,0,0,0,0,0,0,0,0,33,0,0,0,232,0,228,228,228,228,0,0,0,0,0,0,0,0,0,61,
228,0,62,228,228,228,228,228,228,228,41,0,297,0,232,0,0,0,0,0,0,0,214,215,0,0,0,0,0,0,
0,0,56,67,0,0,0,0,0,0,49,0,0,0,281,228,228,228,228,228,228,235,232,0,0,212,0,0,0,0,
0,0,64,217,0,0,0,208,182,0,0,268,0,0,249,0,251,0,0,0,0,0,0,0,279,0,0,0,0,0,
0,0,0,0,0,0,0,0,0,0,0,0,0,0,0,327,0,0,0,0,0,0,0,0,0,0,0,0,0,0
</data>
 </layer>
 <layer id="9" name="Animation" width="30" height="17">
  <data encoding="csv">
0,0,0,0,0,0,0,0,0,0,0,0,0,0,0,0,0,0,0,0,0,0,0,0,0,0,0,0,0,0,
0,0,0,0,0,0,0,0,0,0,0,0,0,0,0,0,0,0,0,0,0,0,0,0,0,0,0,0,0,0,
0,0,0,0,0,0,0,0,0,0,0,0,0,0,0,0,0,0,0,0,0,0,0,0,0,0,0,0,0,0,
0,0,0,0,0,0,0,0,0,0,0,0,0,0,0,0,0,0,0,0,0,0,0,0,0,0,0,0,0,0,
0,0,0,0,0,0,0,0,0,0,0,0,0,0,0,0,0,0,0,0,0,0,0,0,0,0,0,0,0,0,
0,0,0,0,0,0,0,0,0,0,0,0,0,0,0,0,0,0,0,0,0,0,0,0,0,0,82,0,0,0,
0,0,0,0,0,0,0,0,0,0,0,0,0,0,0,0,0,0,0,0,0,0,0,0,0,0,0,0,0,0,
0,0,0,0,0,0,0,0,0,0,0,0,0,0,0,0,0,0,0,0,0,0,0,0,0,0,0,0,0,0,
0,0,0,82,0,0,0,0,0,0,0,0,0,0,0,0,0,0,0,0,0,0,0,0,0,0,0,0,0,0,
0,0,0,0,0,0,0,0,0,0,0,0,0,0,0,0,0,0,0,0,0,0,0,0,0,0,0,0,0,0,
0,0,0,0,2147483959,0,0,0,0,0,0,0,0,0,0,0,0,0,0,0,0,0,0,0,0,0,0,0,0,0,
0,0,0,0,0,0,0,305,0,0,0,0,0,0,0,0,0,0,0,0,0,0,0,0,0,0,0,0,0,0,
0,0,0,0,0,0,0,0,0,0,0,0,0,0,0,0,0,0,0,0,0,0,0,0,0,305,0,0,0,0,
0,0,0,0,0,0,0,0,0,0,0,0,317,0,0,0,0,0,0,0,0,0,0,0,0,0,0,0,0,0,
0,0,0,0,0,0,0,0,0,0,0,0,0,0,0,0,0,0,0,0,0,0,0,323,0,0,0,0,0,0,
0,0,0,0,0,0,0,0,0,0,0,0,0,0,0,0,0,0,0,0,0,0,0,0,0,0,0,0,0,0,
0,0,0,0,0,0,0,0,0,0,0,0,0,0,0,0,0,0,0,0,0,0,0,0,0,0,0,0,0,0
</data>
 </layer>
</map>
