<?xml version="1.0" encoding="UTF-8"?>
<map version="1.10" tiledversion="1.11.2" orientation="orthogonal" renderorder="right-down" width="30" height="17" tilewidth="32" tileheight="32" infinite="0" nextlayerid="8" nextobjectid="9">
 <tileset firstgid="1" name="FieldTileset2" tilewidth="32" tileheight="32" tilecount="3" columns="0">
  <grid orientation="orthogonal" width="1" height="1"/>
  <tile id="0">
   <image source="../Grass/spr_grass_01.png" width="32" height="32"/>
  </tile>
  <tile id="1">
   <image source="../Grass/spr_grass_02.png" width="32" height="32"/>
  </tile>
  <tile id="2">
   <image source="../Grass/spr_grass_03.png" width="32" height="32"/>
  </tile>
 </tileset>
 <tileset firstgid="4" source="../tilesets/Overlays.tsx"/>
 <tileset firstgid="18" source="../tilesets/Objects_Low.tsx"/>
 <tileset firstgid="152" source="../tilesets/Objects_High.tsx"/>
 <tileset firstgid="225" name="Houses" tilewidth="156" tileheight="157" tilecount="4" columns="0">
  <grid orientation="orthogonal" width="1" height="1"/>
  <tile id="0">
   <image source="../tilesets/Objects/Houses/1.png" width="116" height="112"/>
  </tile>
  <tile id="1">
   <image source="../tilesets/Objects/Houses/2.png" width="156" height="135"/>
  </tile>
  <tile id="2">
   <image source="../tilesets/Objects/Houses/3.png" width="147" height="157"/>
  </tile>
  <tile id="3">
   <image source="../tilesets/Objects/Houses/4.png" width="154" height="149"/>
  </tile>
 </tileset>
 <tileset firstgid="229" name="Tent" tilewidth="73" tileheight="71" tilecount="4" columns="0">
  <grid orientation="orthogonal" width="1" height="1"/>
  <tile id="0">
   <image source="../tilesets/Objects/Tent/1.png" width="73" height="65"/>
  </tile>
  <tile id="1">
   <image source="../tilesets/Objects/Tent/2.png" width="64" height="61"/>
  </tile>
  <tile id="2">
   <image source="../tilesets/Objects/Tent/3.png" width="65" height="62"/>
  </tile>
  <tile id="3">
   <image source="../tilesets/Objects/Tent/4.png" width="64" height="71"/>
  </tile>
 </tileset>
 <tileset firstgid="233" name="FlameAnim" tilewidth="32" tileheight="32" tilecount="6" columns="6">
  <image source="../tilesets/Animated Objects/2 Campfire/2.png" width="192" height="32"/>
  <tile id="0">
   <animation>
    <frame tileid="0" duration="150"/>
    <frame tileid="1" duration="150"/>
    <frame tileid="2" duration="150"/>
    <frame tileid="3" duration="150"/>
    <frame tileid="4" duration="150"/>
    <frame tileid="5" duration="150"/>
   </animation>
  </tile>
 </tileset>
 <tileset firstgid="239" name="FlagAnim2" tilewidth="32" tileheight="64" tilecount="6" columns="6">
  <image source="../tilesets/Animated Objects/1 Flag/2.png" width="192" height="64"/>
  <tile id="0">
   <animation>
    <frame tileid="0" duration="150"/>
    <frame tileid="1" duration="150"/>
    <frame tileid="2" duration="150"/>
    <frame tileid="3" duration="150"/>
    <frame tileid="4" duration="150"/>
    <frame tileid="5" duration="150"/>
   </animation>
  </tile>
 </tileset>
 <tileset firstgid="245" name="FlagAnim" tilewidth="32" tileheight="64" tilecount="6" columns="6">
  <image source="../tilesets/Animated Objects/1 Flag/1.png" width="192" height="64"/>
  <tile id="0">
   <animation>
    <frame tileid="0" duration="150"/>
    <frame tileid="1" duration="150"/>
    <frame tileid="2" duration="150"/>
    <frame tileid="3" duration="150"/>
    <frame tileid="4" duration="150"/>
    <frame tileid="5" duration="150"/>
   </animation>
  </tile>
 </tileset>
 <tileset firstgid="251" name="Citizen" tilewidth="48" tileheight="48" tilecount="6" columns="6">
  <image source="../tilesets/Animated Objects/Citizens/D_Special.png" width="288" height="48"/>
  <tile id="0">
   <animation>
    <frame tileid="0" duration="170"/>
    <frame tileid="1" duration="170"/>
    <frame tileid="2" duration="170"/>
    <frame tileid="3" duration="170"/>
    <frame tileid="4" duration="170"/>
    <frame tileid="5" duration="170"/>
   </animation>
  </tile>
 </tileset>
 <tileset firstgid="257" name="Citizen2" tilewidth="48" tileheight="48" tilecount="6" columns="6">
  <image source="../tilesets/Animated Objects/Citizens/S_Special.png" width="288" height="48"/>
  <tile id="0">
   <animation>
    <frame tileid="0" duration="170"/>
    <frame tileid="1" duration="170"/>
    <frame tileid="2" duration="170"/>
    <frame tileid="3" duration="170"/>
    <frame tileid="4" duration="170"/>
    <frame tileid="5" duration="170"/>
   </animation>
  </tile>
 </tileset>
 <objectgroup id="7" name="Path">
  <object id="8" x="5" y="405">
   <polyline points="0,0 284,1 284,-272 444,-273 445,77 670,76 670,-208 955,-208"/>
  </object>
 </objectgroup>
 <objectgroup id="6" name="TowerSpots">
  <object id="1" x="162" y="96" width="61" height="67"/>
  <object id="2" x="68" y="450" width="59" height="58"/>
  <object id="3" x="545" y="322" width="64" height="63"/>
  <object id="4" x="770" y="98" width="63" height="59"/>
  <object id="5" x="355" y="226" width="60" height="60"/>
 </objectgroup>
 <layer id="1" name="Ground" width="30" height="17">
  <data encoding="csv">
1,1,1,1,1,1,1,1,1,1,1,1,1,1,1,1,1,1,1,1,1,1,1,1,1,1,1,1,1,1,
1,1,1,1,1,1,1,1,1,1,1,1,1,1,1,1,1,1,1,1,1,1,1,1,1,1,1,1,1,1,
1,1,1,1,1,1,1,1,1,1,1,1,1,1,1,1,1,1,1,1,1,1,1,1,1,1,1,1,1,1,
1,1,1,1,1,1,1,1,3,3,3,3,3,3,3,1,1,1,1,1,1,1,1,1,1,1,1,1,1,1,
1,1,1,1,1,1,1,1,3,3,3,3,3,3,3,1,1,1,1,1,1,1,1,1,1,1,1,1,1,1,
1,1,1,1,1,1,1,1,3,3,1,1,1,3,3,1,1,1,1,1,3,3,3,3,3,3,3,3,3,3,
1,1,1,1,1,1,1,1,3,3,1,1,1,3,3,1,1,1,1,1,3,3,3,3,3,3,3,3,3,3,
1,1,1,1,1,1,1,1,3,3,1,1,1,3,3,1,1,1,1,1,3,3,3,3,3,3,3,3,3,3,
1,1,1,1,1,1,1,1,3,3,1,1,1,3,3,1,1,1,1,1,3,3,1,1,1,1,1,1,1,1,
1,1,1,1,1,1,1,1,3,3,1,1,1,3,3,1,1,1,1,1,3,3,1,1,1,1,1,1,1,1,
1,1,1,1,1,1,1,1,3,3,1,1,1,3,3,1,1,1,1,1,3,3,1,1,1,1,1,1,1,1,
3,3,3,3,3,3,3,3,3,3,1,1,1,3,3,1,1,1,1,1,3,3,1,1,1,1,1,1,1,1,
3,3,3,3,3,3,3,3,3,3,1,1,1,3,3,1,1,1,1,1,3,3,1,1,1,1,1,1,1,1,
3,3,3,3,3,3,3,3,3,3,1,1,1,3,3,1,1,1,1,1,3,3,1,1,1,1,1,1,1,1,
1,1,1,1,1,1,1,1,1,1,1,1,1,3,3,3,3,3,3,3,3,3,1,1,1,1,1,1,1,1,
1,1,1,1,1,1,1,1,1,1,1,1,1,3,3,3,3,3,3,3,3,3,1,1,1,1,1,1,1,1,
1,1,1,1,1,1,1,1,1,1,1,1,1,1,1,1,1,1,1,1,1,1,1,1,1,1,1,1,1,1
</data>
 </layer>
 <layer id="2" name="TowerSpotsVis" width="30" height="17">
  <data encoding="csv">
0,0,0,0,0,0,0,0,0,0,0,0,0,0,0,0,0,0,0,0,0,0,0,0,0,0,0,0,0,0,
0,0,0,0,0,0,0,0,0,0,0,0,0,0,0,0,0,0,0,0,0,0,0,0,6,0,0,0,0,0,
0,0,0,0,0,0,0,0,0,0,0,0,0,0,0,0,0,0,0,0,0,0,0,0,0,0,0,0,0,0,
0,0,0,0,0,0,0,0,0,0,0,0,0,0,0,0,0,2147483660,0,0,0,0,0,0,0,0,0,0,0,0,
0,0,0,0,0,10,0,0,0,0,0,0,0,0,0,0,0,0,0,7,0,3221225480,0,0,10,0,0,0,0,0,
0,0,0,0,0,0,7,0,0,0,0,0,0,0,0,0,0,0,0,0,0,0,0,0,0,0,0,0,0,0,
0,0,0,0,0,0,0,0,0,0,0,0,0,0,0,0,0,0,0,0,0,0,0,0,0,0,0,0,0,0,
7,0,0,0,0,0,0,0,0,0,13,0,0,0,0,0,0,0,0,0,0,0,0,0,0,0,0,0,0,0,
2147483660,0,0,0,0,0,0,0,0,0,0,10,0,0,0,0,0,0,0,0,0,0,0,0,0,2147483660,0,0,0,0,
0,0,0,0,0,0,0,0,0,0,0,0,0,0,12,12,13,0,0,0,12,12,13,2147483660,2147483660,2147483660,0,0,0,0,
0,0,0,0,13,0,0,0,0,0,0,0,0,0,0,2147483660,0,2147483660,0,0,0,0,0,0,0,0,0,0,0,0,
0,0,0,0,0,0,0,0,0,0,0,0,0,0,0,0,0,10,0,0,0,0,0,0,0,0,0,0,0,0,
0,0,0,0,0,0,0,0,0,0,9,0,0,0,0,0,0,0,0,0,0,0,0,7,0,0,0,0,0,0,
0,0,0,0,0,0,0,0,0,0,0,0,0,0,0,0,0,7,0,0,0,0,0,0,0,0,0,0,0,0,
0,0,0,0,0,0,7,0,0,0,0,0,0,0,0,0,0,0,0,0,0,0,0,0,0,0,0,0,0,0,
0,0,10,0,0,0,0,0,0,0,0,0,0,0,0,0,0,0,0,0,0,0,0,0,0,0,0,0,0,0,
0,0,0,0,0,13,0,0,0,0,0,0,0,0,0,0,0,0,0,0,0,0,0,0,0,0,0,0,0,0
</data>
 </layer>
 <layer id="3" name="PropsBelow" width="30" height="17">
  <data encoding="csv">
0,122,129,0,129,129,0,0,0,0,0,0,0,0,0,0,0,0,122,0,0,0,0,131,131,0,0,0,0,0,
0,129,0,0,0,129,0,0,122,122,122,122,120,120,0,122,131,129,129,129,129,0,0,131,131,122,122,0,0,0,
0,0,0,122,129,129,131,122,143,0,0,122,122,120,120,122,129,0,131,120,122,129,122,131,131,0,122,0,0,0,
131,0,131,120,129,131,131,0,0,0,0,0,122,122,0,120,129,122,131,120,120,0,120,120,120,122,122,0,0,0,
0,0,129,120,129,0,0,120,0,0,0,0,0,0,0,120,120,122,131,113,146,0,120,120,0,122,0,0,0,0,
0,129,131,120,120,120,0,120,0,0,0,0,0,0,0,120,129,129,122,131,0,0,120,129,129,122,0,0,0,0,
0,0,131,129,120,0,0,120,0,0,0,0,0,0,0,0,0,129,129,120,0,122,0,0,122,0,0,0,0,0,
120,0,129,122,0,0,120,122,0,0,0,0,0,0,0,0,0,0,131,120,129,122,0,0,122,0,0,0,0,0,
120,129,0,120,131,120,120,0,122,122,0,0,0,0,0,0,129,129,0,129,129,122,0,0,122,122,131,0,0,0,
0,0,0,0,0,122,122,122,122,0,122,0,0,0,0,0,129,120,120,0,129,0,0,129,129,120,120,122,0,0,
0,0,131,131,131,131,131,0,0,0,122,122,0,0,0,120,120,131,120,129,122,0,0,0,129,120,120,131,122,0,
0,0,0,0,0,0,0,0,131,0,131,131,0,0,120,120,129,120,131,129,122,0,0,0,120,0,0,131,131,0,
0,0,0,0,0,0,0,0,0,0,0,0,0,0,120,129,120,0,131,129,0,122,0,131,120,0,120,122,131,0,
0,0,0,0,0,0,0,129,129,131,0,131,0,120,120,120,120,0,131,129,0,122,0,131,141,0,122,122,131,131,
0,0,0,0,0,0,112,143,120,0,131,131,0,120,120,120,131,122,122,129,131,122,122,111,129,129,131,131,131,131,
0,129,129,0,131,131,120,0,0,120,120,131,122,122,0,0,131,131,131,129,0,0,122,131,129,0,0,0,0,0,
0,0,129,129,129,120,120,0,0,120,129,0,0,0,0,0,122,122,0,122,0,0,0,129,129,0,0,0,0,0
</data>
 </layer>
 <layer id="4" name="PropsAbove" width="30" height="17">
  <data encoding="csv">
0,0,0,0,111,0,0,0,0,0,0,0,0,0,0,0,0,0,0,0,0,0,0,0,0,0,0,0,0,0,
0,0,0,0,0,0,0,0,0,111,0,0,0,0,0,0,0,0,0,0,0,0,0,0,114,0,0,0,0,0,
0,0,0,0,0,0,0,0,153,154,154,157,154,189,209,0,229,222,230,224,0,0,0,0,0,0,0,0,0,0,
0,0,0,0,0,0,0,0,158,0,0,0,0,0,0,158,223,0,0,0,0,194,0,0,0,0,0,2147483879,220,0,
0,0,0,0,2147483860,0,0,0,158,0,154,154,154,0,0,158,190,0,191,0,154,152,172,154,154,154,154,0,0,0,
227,0,224,0,0,0,199,177,158,0,158,0,0,158,0,159,0,0,0,0,158,0,0,0,0,0,0,0,0,0,
191,166,0,0,0,0,0,0,158,0,158,0,0,158,0,158,0,0,0,0,158,0,0,0,0,0,0,0,0,0,
195,0,0,0,0,0,0,0,158,0,161,0,0,158,0,158,0,0,0,0,158,0,154,152,155,152,152,154,0,0,
0,0,0,0,0,0,0,0,0,0,158,0,0,158,0,158,225,0,0,0,158,0,158,0,0,0,0,0,0,0,
0,0,228,0,0,0,0,207,0,0,158,0,0,158,0,189,0,0,0,0,158,0,159,0,0,0,0,0,0,0,
154,154,154,154,0,153,159,170,0,0,158,0,0,158,0,158,0,0,0,0,158,0,158,232,0,0,0,0,0,0,
0,0,0,0,0,0,0,0,0,0,158,194,0,160,0,158,0,0,0,0,158,0,158,200,0,0,0,0,0,0,
0,0,0,0,0,0,0,0,0,0,0,0,0,158,0,158,0,0,0,188,158,0,172,195,228,0,0,0,0,0,
154,154,154,154,156,157,154,154,154,154,0,0,0,158,0,2147483816,154,114,152,154,158,0,158,0,0,0,0,0,0,0,
0,0,0,0,0,0,0,0,0,0,0,2147483859,0,158,0,0,0,0,0,0,0,0,158,0,0,0,222,205,0,0,
0,0,0,0,231,0,204,0,0,0,0,0,0,154,152,152,154,154,152,153,155,154,158,210,0,0,0,0,0,0,
0,0,0,0,2147483846,0,0,226,0,223,0,0,0,0,0,0,0,0,0,0,0,0,0,0,0,0,0,0,0,0
</data>
 </layer>
 <layer id="5" name="Animations" width="30" height="17">
  <data encoding="csv">
0,0,0,0,0,0,0,0,0,0,0,0,0,0,0,0,0,0,0,0,0,0,0,0,0,0,0,0,0,0,
0,0,0,0,0,0,0,0,0,0,0,0,0,0,0,0,0,0,0,0,0,0,0,0,0,0,0,0,0,0,
0,0,0,0,0,0,0,0,0,0,0,0,0,0,0,0,0,0,0,0,0,0,0,0,0,0,0,0,0,0,
0,0,0,0,0,0,0,0,0,0,0,0,0,0,0,0,0,251,0,0,0,0,0,0,0,0,0,0,0,0,
0,0,0,0,0,0,0,0,0,0,0,0,0,0,0,0,0,233,0,0,0,0,0,0,0,0,0,0,0,0,
0,0,0,0,0,0,0,0,0,0,0,0,0,0,0,0,0,0,0,0,0,0,0,0,0,0,0,0,0,0,
0,0,0,0,0,0,0,0,0,0,0,0,0,0,0,0,0,0,0,0,0,0,0,0,0,0,0,0,0,0,
0,0,0,0,0,0,0,0,0,0,0,0,0,0,0,0,0,0,0,0,0,0,0,0,0,0,0,0,0,0,
0,0,0,0,0,0,0,0,0,0,0,0,0,0,0,0,0,0,0,0,0,0,0,0,0,0,0,0,0,0,
0,0,0,0,0,0,0,0,0,0,0,0,0,0,0,0,0,0,0,0,0,0,0,0,0,0,0,0,0,0,
0,0,0,0,0,0,0,0,0,0,0,0,0,0,0,0,0,0,0,0,0,0,0,0,0,0,0,0,0,0,
0,0,0,0,0,0,0,0,0,0,0,0,0,0,0,0,0,0,0,0,0,0,0,0,0,0,0,0,0,0,
0,0,0,0,0,0,0,0,0,0,0,0,0,0,0,0,0,0,0,0,0,0,239,257,0,0,0,0,0,0,
0,0,0,0,0,0,0,0,0,0,0,0,0,0,0,0,0,0,0,0,0,0,0,0,0,0,0,0,0,0,
0,0,0,0,0,0,0,0,0,0,0,0,0,0,0,0,0,0,0,0,0,0,0,0,0,0,0,0,0,0,
0,0,0,0,0,0,0,0,0,0,0,0,245,0,0,0,0,0,0,0,0,0,0,0,0,0,0,0,0,0,
0,0,0,0,0,0,0,0,0,0,251,0,0,0,0,0,0,0,0,0,0,0,0,0,0,0,0,0,0,0
</data>
 </layer>
</map>
